X:1
T:Sonata I - RV27 - Giga
T:Sonata I - RV27 Corrente 
T:Antonio Vivaldi
C:Antonio Vivaldi
%%score 1 2
L:1/8
Q:1/8=120
M:3/8
K:F
V:1 treble nm="Violin" snm="Vln."
V:2 bass nm="Violoncello" snm="Vc."
V:1
"_Allegro" z/ G/B/A/B/G/ | AdD | BGg- | g^f/e/f | gG z | dAc- | cBA | GgG | _eAa | ^fdg- | gD^f | %11
 gd/e/f- | f e2 | fc/d/_e- | e d2 | _ef/e/d- | dcf | dDg | z Ea | z Fb | gEa | dDg | _e^cd- | %23
 d/e<Ped/ | d3 :: z/ d/f/e/f/d/ | eaA | fdd'- | d'^c'/=b/c' | d'd z | aea/g/ | ^fPf3/2e/4f/4 | %32
 gdg/f/ | ePe3/2d/4e/4 | fcf/_e/ | dDf- | f_ed | cC_e- | edc | BB,d- | dcB | AFB- | BGc- | cAd- | %44
 dB_e- | ecf | dBg | AfB | g Pc2 | BB,d | fP=B3/2A/4B/4 | cC_e | gP^c3/2=B/4c/4 | dD z | z gf | %55
 eEe | ff/_e/f/e/ | dDd | _eed | cCc | dd/c/d/x/ | BGg- | gD^f | G,2 _e | AA,d | GG,c | A^FG- | %67
 G/A<PAG/ | G3 :| %69
V:2
 z3 | z3 | z/ G,,/B,,/A,,/B,,/G,,/ | A,,D,D,, | B,,G,,G,- | G,^F,/E,/F, | G,D,F,- | F,_E,D, | %8
 C,CC, | D,/_E,/D,/C,/B,, | C,D,D,, | G,, z z | CG,/A,/B,- | B, A,2 | B,F,/G,/A,- | A,F,B, | %16
 A,A,,A, | B,B,,B, | CC,C | DD,D- | DC/B,/C- | CB,/A,/B,- | B,A,/G,/F, | G,A,A,, | D,3 :: z3 | z3 | %27
 z/ D,/F,/E,/F,/D,/ | E,A,A,, | F,D,D- | D^C/=B,/C | DA,D/C/ | =B,B,3/2A,/4B,/4 | CG,C/B,/ | %34
 A,A,3/2G,/4A,/4 | B,F,B,/A,/ | G,G,,B,- | B,A,G, | F,F,,A,- | A,G,F, | _E,_E,,G, | F,2 D, | %42
 _E,_E,,=E, | F,F,,^F, | G,G,,G, | A,A,,A, | B,G,_E, | F,>_E,D, | _E,F,F,, | B,,2 F, | D,G,F, | %51
 _E,2 G, | E,A,G, | ^F,DC | =B,=B,,B, | CC/B,/C/B,/ | A,A,,A, | B,B,A, | G,G,,G, | A,A,/G,/A,/G,/ | %60
 ^F,^F,,F, | G,2 B,, | C,D,D,, | G,G,,G,- | G,F,/E,/F,- | F,_E,/D,/E,- | E,D,/C,/B,, | C,D,D,, | %68
 G,,3 :| %69

